X: 37
T:Dissembling Love (Lost Heart)
K:F
M:6/8
D|D2 E F2 G|A3 A2 d|c2 A B2 G|A3 A2 D|D2 E F2 G|A3 A2 d|c2 A B2 G| A3 A2 :|
|: B/2c/2|d2 A A B2| c3 F>GA/2B/2| GAF/2G/2 E>DE/2F/2| D3 D2:|
|: B/2c/2|d2 A A B2| c3 F>GA/2B/2| GAF/2G/2 E>DE/2F/2| D3 D2:|

